X: 5283
T: Brosna Town
R: waltz
M: 3/4
K: Dmajor
"A" E|"D" F2 F "A" E2 D|"G" B2 B "D" A2 F|"D" F2 D "A" D2 E|"D" D3D2 A|
"G" B2 B B2 c|"G" d2 e d2 B|"D" A2 FF ED|"A" E3E2 A|
"G" B2 B B2 c|"G" d2 e d2 B|"D" A2 FF ED|"A" E3E2 D/E/|
"D" F2 F "A" E2 D|"G" B2 B "D" A2 F|"D" F2 D "A" D2 E|"D" D3D2||

